src/assets/calendarLight.svg

<?xml version="1.0" encoding="utf-8"?>
<!-- Generator: Adobe Illustrator 27.1.0, SVG Export Plug-In . SVG Version: 6.00 Build 0)  -->
<svg version="1.1" id="Layer_1" xmlns="http://www.w3.org/2000/svg" xmlns:xlink="http://www.w3.org/1999/xlink" x="0px" y="0px"
	 viewBox="0 0 24 24" style="enable-background:new 0 0 24 24;" xml:space="preserve">
<style type="text/css">
	.st0{fill-rule:evenodd;clip-rule:evenodd;fill:#FFFFFF;}
</style>
<path class="st0" d="M20,8V5h-2v1h-2V5H8v1H6V5H4v3H20z M20,10H4v10h16V10z M18,3h2c1.1,0,2,0.9,2,2v15c0,1.1-0.9,2-2,2H4
	c-1.1,0-2-0.9-2-2V5c0-1.1,0.9-2,2-2h2V2h2v1h8V2h2V3z"/>
</svg>

<?xml version="1.0" ?><svg height="24" viewBox="0 0 24 24" width="24" xmlns="http://www.w3.org/2000/svg"><path fill="#FFFFFF" d="M20,8 L20,5 L18,5 L18,6 L16,6 L16,5 L8,5 L8,6 L6,6 L6,5 L4,5 L4,8 L20,8 Z M20,10 L4,10 L4,20 L20,20 L20,10 Z M18,3 L20,3 C21.1045695,3 22,3.8954305 22,5 L22,20 C22,21.1045695 21.1045695,22 20,22 L4,22 C2.8954305,22 2,21.1045695 2,20 L2,5 C2,3.8954305 2.8954305,3 4,3 L6,3 L6,2 L8,2 L8,3 L16,3 L16,2 L18,2 L18,3 Z" fill-rule="evenodd"/></svg>
